resources/svg/table-o.svg

<svg xmlns="http://www.w3.org/2000/svg" viewBox="0 0 15 15" fill="none"><path d="M0.5 4.5H14.5M4.5 0.5V14.5M1.5 0.5H13.5C14.0523 0.5 14.5 0.947715 14.5 1.5V13.5C14.5 14.0523 14.0523 14.5 13.5 14.5H1.5C0.947716 14.5 0.5 14.0523 0.5 13.5V1.5C0.5 0.947716 0.947715 0.5 1.5 0.5Z" stroke="black"/></svg>

<svg xmlns="http://www.w3.org/2000/svg" viewBox="0 0 15 15" fill="none"><path d="M.5 4.5h14m-10-4v14m-3-14h12a1 1 0 011 1v12a1 1 0 01-1 1h-12a1 1 0 01-1-1v-12a1 1 0 011-1z" stroke="currentColor"/></svg>
